icons/tokens/0xbC396689893D065F41bc2C6EcbeE5e0085233447/logo.svg

<svg width="32" height="32" viewBox="0 0 32 32" fill="none" xmlns="http://www.w3.org/2000/svg">
<circle cx="16" cy="16" r="16" fill="white"/>
<path fill-rule="evenodd" clip-rule="evenodd" d="M8.61331 14.9342L13.6962 9.85137L16.0421 12.1973L10.9593 17.2802L8.61331 14.9342ZM13.3052 19.6261L17.1418 23.4626L14.7958 25.8086L5.10179 16.1145L5.09444 16.1072C4.53646 15.5492 4.45909 14.6926 4.86232 14.0518C4.92724 13.9487 5.00461 13.8511 5.09445 13.7612L5.09897 13.7567L12.5231 6.33257C12.861 5.99473 13.3083 5.83308 13.7509 5.84761C14.157 5.86092 14.5592 6.02257 14.8692 6.33257L19.5547 11.0181C19.5568 11.0202 19.5589 11.0223 19.561 11.0244C20.1278 11.5912 20.1987 12.4662 19.7735 13.1101C19.7204 13.1906 19.6595 13.2674 19.5909 13.3396C19.5811 13.35 19.5711 13.3602 19.561 13.3703M13.3052 19.6261L19.559 13.3723Z" fill="#3CEAAA"/>
<path fill-rule="evenodd" clip-rule="evenodd" d="M17.1341 6.34283L17.1443 6.33257C17.5631 5.91376 18.1501 5.76571 18.6879 5.88842C18.9819 5.95551 19.2612 6.10356 19.4903 6.33258L19.4984 6.34082L26.9024 13.7447L26.9191 13.7613C27.5669 14.4091 27.5669 15.4594 26.9191 16.1072L17.2749 25.7514C16.9706 26.1143 16.5138 26.3451 16.0031 26.3451C15.087 26.3451 14.3443 25.6024 14.3443 24.6863C14.3443 24.2155 14.5404 23.7905 14.8554 23.4886L14.8506 23.4838L18.7083 19.6261L12.4525 13.3703L12.4525 13.3703C11.8047 12.7225 11.8047 11.6722 12.4525 11.0244L12.4591 11.0178L17.1341 6.34283ZM23.4001 14.9343L21.0542 17.2802L15.9714 12.1973L18.3173 9.85147L23.4001 14.9343Z" fill="#1A5D73"/>
<path d="M13.4398 9.66016L15.9866 7.45L19.5628 11.0968L17.2196 13.44L13.4398 9.66016Z" fill="#3CEAAA"/>
</svg>

<svg fill="none" viewBox="0 0 32 32"><circle cx="16" cy="16" r="16" fill="#fff"/><path fill="#3CEAAA" fill-rule="evenodd" d="M8.613 14.934l5.083-5.083 2.346 2.346-5.083 5.083-2.346-2.346zm4.692 4.692l3.837 3.837-2.346 2.346-9.694-9.695-.008-.007a1.66 1.66 0 010-2.346l.005-.004 7.424-7.424c.338-.338.785-.5 1.228-.485.406.013.808.175 1.118.485l4.686 4.685.006.006a1.66 1.66 0 010 2.346m-6.256 6.256l6.254-6.254z" clip-rule="evenodd"/><path fill="#1A5D73" fill-rule="evenodd" d="M17.134 6.343l.01-.01a1.658 1.658 0 012.346 0l.008.008 7.404 7.404.017.016a1.659 1.659 0 010 2.346l-9.644 9.644a1.659 1.659 0 11-2.42-2.263l-.004-.004 3.857-3.858-6.255-6.256a1.659 1.659 0 010-2.346l.006-.006 4.675-4.675zm6.266 8.591l-2.346 2.346-5.083-5.083 2.346-2.346 5.083 5.083z" clip-rule="evenodd"/><path fill="#3CEAAA" d="M13.44 9.66l2.547-2.21 3.576 3.647-2.343 2.343-3.78-3.78z"/></svg>
